X:1
T:'A RISA
T:'A RISA
T:redite Canzone sentimentale eccentrica
T:Bernardo Cantalamessa
T:Io rido si uno chiagne, si stóngo disperato, si nun aggio magnato, rido senza penzá... Mme pare che redenno, ogne turmiento passa... nce se recréa e spassa... cchiù allero se pò stá... Sarrá difetto gruosso chistu ccá... Ah – ah – ah – ah... Ma ‘o tengo e nun mm”o pòzzo cchiù levá... Ah – ah – ah – ah... 
T:Lu nonno mio diceva ca tutte li ffacenne faceva isso redenno... E accussí i' voglio fá... Chist'è ‘o difetto mio, vuje giá mo lu ssapite... ‘nzieme cu me redite ca bene ve farrá! Redite e ghiammo ja': Ah – ah – ah – ah Ca bene ve farrá: Ah – ah – ah – ah Ah – ah – ah – ah
T:by IMSLP - Pubblico dominio
T:by IMSLP - Pubblico dominio
T:by IMSLP - Pubblico dominio
C:Bernardo Cantalamessa
Z:by IMSLP - Pubblico dominio
%%score 1 { 2 | 3 }
L:1/8
Q:1/4=120
M:2/4
K:E
V:1 treble nm="Voice"
V:2 treble nm="Piano"
V:3 bass 
V:1
"^Allegro vivace" z | z4 | z4 | z4 | z4 | z4 | z4 | z4 | z2 z[Q:1/4=110] B || E G B e | d !>!c2 c | %11
w: ||||||||Io|ten\- goa che so'|na\- to, nu|
 (D F A d) | c !>!B2 B | (E G B e) | d !>!c2 c | B ^B c d | e2- e B | (E G B e) | e !>!c2 c | %19
w: vi\- zio gruos\- so~as\-|sa\- ie che'un|ag\- gio per\- zo|ma\- ie va'|tro\- va lu per\-|chè................. * M'è|sem\- pe pi a|ciu\- to de|
 (D F A d) | c !>!B2 B | E G B e | d !>!c2 c | B ^B c d |[Q:1/4=115] e z z B || E F G A | B c d e | %27
w: sta\- rein al\- le\-|gri\- a io|la ma\- lin\- co\-|ni\- a nun|sac\- cio che robb'|è De|tut\- to ri\- doe|che nce poz\- zo|
 d"^(ridendo)" !wedge!x !wedge!x !wedge!x | x z z A | D E F G | A B c d | %31
w: fa|Nun|me ne 'mpor\- ta|si ston\- goa sba\-|
 c"^(ridendo)""^Strumento:" !wedge!x !wedge!x !wedge!x | x z z !wedge!x | %33
w: glià||
 !wedge!x !wedge!x !wedge!x !wedge!x | !wedge!x !wedge!x !wedge!x !wedge!x | %35
w: ||
 !wedge!x !wedge!x !wedge!x x | x z z !wedge!x | !wedge!x !wedge!x !wedge!x !wedge!x | %38
w: |||
 !wedge!x !wedge!x !wedge!x !wedge!x | !wedge!x !wedge!x !wedge!x x | x z z2!D.C.! |] %41
w: |||
V:2
 (3b/c'/b/ | .e.f .g.a | .b.c' .d'.e' | .d'.c' .^b.d' | c' z z (3b/c'/b/ | de fg | ag a^a | %7
 b^b c'd' | e' z!f! !fermata![egbe']b || eg be' | d' c'2 c' | (df ad') | c' !>!b2 b | (eg be') | %14
 d' !>!c'2 c' |!<(! b^b c'd'!<)! | e'2 e'b | (eg be') | d' !>!c'2 c' | (df ad') | c' !>!b2 b | %21
 eg be' | d' !>!c'2 c' | b^b c'd' | e' z z (3b/c'/b/ || ef ga | bc' d'e' | d'c' ^bd' | %28
 c' z z (3a/b/a/ | de fg | ab c'd' | c'b ^ac' | b z z (3b/c'/b/ | ef g=a | bc' d'e' | d'c' ^bd' | %36
 c' z z (3a/b/a/ | dd fg | ag a^a | b^b c'd' |!f! e' z!ff! [egbe']2 |] %41
V:3
 z | E,[B,G] G,[B,G] | E,[B,G] G,[B,G] | F,[CF] A,[CF] | F,[CF] A,[CF] | D,[F,A,B,] B,,[F,A,B,] | %6
 D,[F,A,B,] B,,[F,A,B,] | D,[F,A,B,] B,,[F,A,B,] | E, z !fermata![C,,E,]"^Moderato" z || %9
 E,[G,B,E] B,,[G,B,E] | A,[CF] [CF] z | D,[A,B,D] F,[A,B,D] | E,[G,B,E] [G,B,E] z | %13
 E,[G,B,E] B,,[G,B,E] | F,[A,CF] [A,CF] z | D,[F,A,B,] B,,[F,A,B,] | E,[G,B,E] [G,B,E] z | %17
 E,[G,B,E] B,,[G,B,E] | F,[CF] [CF] z | E,[A,B,D] F,[A,B,D] | E,[G,B,E] [G,B,E] z | %21
 E,[G,B,E] B,,[G,B,E] | A,[CF] [CF] z | D,[F,A,B,] B,,[F,A,B,] |"^Più mosso" E,2 [C,,E,]2 || %25
 E,[B,E] G,[B,E] | E,[B,G] G,[B,G] | E,[B,G] A,[B,G] | F,[CF] B,[CF] | D,[F,A,B,] B,,[F,A,B,] | %30
 D,[F,A,B,] B,,[F,A,B,] | E,[B,G] G,[B,G] | E,[B,E] G,[B,E] | E,[G,B,E] G,[B,E] | %34
 E,[G,B,E] G,[B,E] | F,[CF] A,[CF] | F,[CF] B,[CF] | D,[F,A,B,] B,,[F,A,B,] | %38
 D,[F,A,B,] B,,[F,A,B,] | D,[F,A,B,] B,,[F,A,B,] | [E,G,] z [E,,E,]2 |] %41

